X:26
T:Black Joke. WHG.026
R:jig
S:W.H.Giles MS,Bampton,Oxfordshire,1839p25
O:England
H:donated by Mrs W.R.Kettlewell to VWML,Apr 1927.
A:Bampton, Oxfordshire
Z:PJHeadford – VMP 2009
M:6/8
L:1/8
Q:3/8=110
K:G
|:D|D2G GFG|ABA AGA|BcB BAG|ABA AGF|
GAB EFG|DEF G2::G|GBd ded|efg dBG|
GBd ded|efg d2c|BcB BAG|ABA AGA|
BcB BAG|ABA AGF|GAB EFG|DEF G2:|

